!!!COM: Gabriel Faure/
!!!CNT: Francais
!!!TXO: Francais
!!!OTL: "En sourdine"
!!!LYR: Verlaine
!!!OPR: Cinq Me/lodies
!!!OPS: Op. 58
!!!ONM: No. 2
!!!ENC: Emily Thomas
!!!YOR: CD Sheet Music French Art Songs, The Ultimate Collection
!!!YOR: CD Sheet Music, LLC 2003
!!!ODT: 1891/
!!NB: Vocal melody and text encoded.
**kern	**silbe
=1	=1
*clefG2	*
*k[b-e-a-]	*
*M4/4	*
*MM[Andante moderato]	*
1r	.
=2	=2
{2.g	{Cal-
[4f	-mes
=3	=3
4f_	|
8f]	|
8r	.
8e-	dans
8e-	le
8.a-	de-
16a-	-mi-
=4	=4
4g	-jour
8d	Que
8e-	les
8f	bran-
8d-	-ches
8.d-	hau-
16e-	-tes
=5	=5
[2c	font,
4c]}	|}
4r	.
=6	=6
2r	.
8r	.
{8an	{Pe/-
8b-	-ne/-
8b-	-trons
=7	=7
4f#	bien
8.f#	notre
16f#	a-
[4g	-mour.
8g]}	|}
8r	.
=8	=8
8r	.
{8b-	{De
8cc	ce
8cc	si-
4a-	-len-
8.g	-ce
16g	pro-
=9	=9
2f}	-fond,}
8r	.
{8an	{Me^-
8.cc	-lons
16cc	nos
=10	=10
4cc	a6-
4b-}	-mes,}
8r	.
{8b-	{Nos
[4dd-	coeurs
=11	=11
8dd-]	|
8r	.
8dd-	et
8cc	nos
8b-	sens
8a-	ex-
8.a-	-ta-
16g	-si-
=12	=12
[2f	-e/s,
4f]}	|}
8r	.
{8cc	{Par-
=13	=13
8cc	-mi
8dd	les
2cc	va-
8cc-	-gues
8g-	lan-
=14	=14
[2g-	-gueurs
8g-]	|
8f-	des
[4f-	pins
=15	=15
2f-]	|
8e-	et
8e-	des
8.d	ar-
16e-	-bou-
=16	=16
[2e-	-siers
4e-]}	|}
4r	.
=17	=17
{4b-	{Fer-
8b-	-me
8b-	tes
[2dd-	yeux
=18	=18
12dd-]	|
12cc	a\
12dd-	de-
[2cc	-mi,
8cc]}	|}
8r	.
=19	=19
{4b-	{Croi-
8b-	-se
8b-	tes
[2dd-	bras
=20	=20
12dd-]	|
12cc	sur
12dd-	ton
[2cc	sein
8cc]}	|}
8r	.
=21	=21
{4cc	{Et
8en	de
8en	ton
4f	Coeur
8cc-	en-
8cc-	-dor-
=22	=22
2cc-	-mi
4b-	Chasse
8a-	a\
8f-	ja-
=23	=23
2e-	-mais
4.g-	tout
8g-	des-
=24	=24
[2f	-sein.
8f]}	|}
8r	.
4r	.
=25	=25
{4.dd-	{Lais-
8cc-	-sons-
4.b-	-nous
8a-	per-
=26	=26
8b-	-su-
8f	-a-
[4f	-der
8f]}	|}
8r	.
{4b-	{Au
=27	=27
4dd-	souf-
8cc-	-fle
8b-	ber-
4.cc-	-ceur
8a-	et
=28	=28
2.b-	doux
4a-	Qui
=29	=29
4g	vient,
8a-	a\
8b-	tes
4.cc-}	pieds,}
{8a-	{ri-
=30	=30
4.b-	-der
8b-	Les
4b-	on-
8a-	-des
8cc-	des
=31	=31
8b-	ga-
8a-	-zons
[2.g-	roux.
=32	=32
2g_	|
4g-]}	|}
4r	.
=33	=33
4r	.
{4gn	{Et
4gn	quand,
8f	so-
8f	-len-
=34	=34
8.e-	-nel,
16e-	le
[2a-	soir
8a-]	|
8a-	Des
=35	=35
4.g	che^-
8d	-nes
4f	noirs
8.d-	tom-
16e-	-be-
=36	=36
[2c	-ra,
4c]}	|}
4r	.
=37	=37
{4.b-	{Voix
8cc	de
8a-	no-
8a-	-tre
8.g	de/-
16g	-ses-
=38	=38
[2f	-poir,
4f_	|
8f]}	|}
8r	.
=39	=39
2r	.
4r	.
{4e-	{Le
=40	=40
4.cc	ros-
8cc	-si-
[2b-	-gnol
=41	=41
2b-_	|
4b-]}	|}
4r	.
=42	=42
{[2ee-	{chan-
4.ee-]	|
8e-	-te-
=43	=43
[1e-	-ra.
=44	=44
2e-]}	|}
2r	.
==	==
*-	*-
